!!!!SEGMENT: pl-sa--95-a-ii-35--007_anonim--archangeli-salvete.krn
!!!cenid: 17xx:1458
!!!COM: Anonim
!!!COM-rismid: pe30004985
!!!CDT:
!!!CNT:
!!!OTL: Archangeli salvete
!!!PDT:
!!!AGN:
!!!SMS-siglum: PL-SA
!!!SMS-shelfmark: 95/A II 35
!!!SMS-shelfwork: 007 W
!!!SMS-variant:
!!!SMS-altvar:
!!!NIFC-rismid: 1001041193
!!!URL-scan: http://bc.bdsandomierz.pl/dlibra/publication/1376/edition/1344/content
!!!ONB-nifc: 7mus
!!!AIN: 1 organ 2 violn 1 vox
!!!key: G
**kern	**fba	**kern	**dynam	**kern	**dynam	**kern	**text
*part4	*part4	*part3	*part3	*part2	*part2	*part1	*part1
*staff4	*	*staff3	*	*staff2	*	*staff1	*staff1
*I"Organo.	*	*I"Violino 2do	*	*I"Violino 1mo.	*	*I"Vox Cantans alternatè	*
*I'org	*	*I'vl 2	*	*I'vl 1	*	*I'V	*
*Iorgan	*	*Ivioln	*	*Ivioln	*	*Ivox	*
*ICklav	*	*ICstr	*	*ICstr	*	*ICvox	*
*>[A,B,A]	*	*>[A,B,A]	*>[A,B,A]	*>[A,B,A]	*>[A,B,A]	*>[A,B,A]	*>[A,B,A]
*>A	*	*>A	*>A	*>A	*>A	*>A	*>A
*clefF4	*	*clefG2	*	*clefG2	*	*clefC1	*
*k[f#]	*	*k[f#]	*	*k[f#]	*	*k[f#]	*
*G:	*	*G:	*	*G:	*	*G:	*
*M4/4	*	*M4/4	*	*M4/4	*	*M4/4	*
*met(c)	*	*met(c)	*	*met(c)	*	*met(c)	*
!LO:TX:a:t=Grave	!	!LO:TX:b:i:t=Archangeli	!	!LO:TX:b:i:t=Archangeli	!	!	!
!LO:TX:b:t=7mus	!	!	!	!LO:TX:a:t=7mus.	!	!LO:TX:a:t=7mus	!
!LO:TX:t=P:problem=znaki f# ff#	!	!LO:TX:t=P:problem=znaki f# ff#	!	!LO:TX:t=P:problem=znaki f# ff#	!	!	!
8G\	.	16b/LL	.	16b\LL	.	8r	.
.	.	16cc/JJ	.	16cc\JJ	.	.	.
=1	=1	=1	=1	=1	=1	=1	=1
8G\L	.	8dd\L	.	8dd\L	.	00r	.
8A\	.	8dd\J	.	8dd\	.	.	.
8B\	.	8dd\L	.	8dd\	.	.	.
8A\J	.	16ee\L	.	8dd\J	.	.	.
.	.	16ff#\JJ	.	.	.	.	.
!	!	!LO:TX:t=P:problem=mixed beam	!	!	!	!	!
4G\	.	8gg\L	.	4b/	.	.	.
.	.	8g/J	.	.	.	.	.
4r	.	8g/L	.	4r	.	.	.
.	.	16b/L	.	.	.	.	.
.	.	16cc/JJ	.	.	.	.	.
=2	=2	=2	=2	=2	=2	=2	=2
8G\L	.	8dd\L	.	8b/L	.	.	.
8A\	.	8dd\J	.	8b/	.	.	.
8B\	.	8dd\L	.	8b/	.	.	.
8A\J	.	16ee\L	.	8a/J	.	.	.
.	.	16ff#\JJ	.	.	.	.	.
8G\L	.	4gg\	.	4b/	.	.	.
8A\	.	.	.	.	.	.	.
8B\	.	8r	.	8r	.	.	.
8G\J	.	8dd\	.	8b/	.	.	.
=3	=3	=3	=3	=3	=3	=3	=3
8c\L	.	[4ee\	.	4cc\	.	.	.
8B\	.	.	.	.	.	.	.
8c\	.	16ee\LL]	.	4r	.	.	.
.	.	16dd\	.	.	.	.	.
8A\J	.	16ee\	.	.	.	.	.
.	.	16cc\JJ	.	.	.	.	.
8B\L	.	[4dd\	.	4b/	.	.	.
8A\	.	.	.	.	.	.	.
8B\	.	16dd\LL]	.	4r	.	.	.
.	.	16cc\	.	.	.	.	.
8G\J	.	16dd\	.	.	.	.	.
.	.	16b\JJ	.	.	.	.	.
!	!	!LO:LB:g=original	!	!	!	!	!
=4	=4	=4	=4	=4	=4	=4	=4
8A\L	.	[4cc\	.	4f#/	.	.	.
8G\	.	.	.	.	.	.	.
8F#\	.	16cc\LL]	.	8r	.	.	.
.	.	16b\	.	.	.	.	.
8D\J	.	16cc\	.	8f#/L	.	.	.
.	.	16a\JJ	.	.	.	.	.
8G\L	.	8b/L	.	8g/	.	.	.
16G\L	.	8g/J	.	8f#/J	.	.	.
16A\JJ	.	.	.	.	.	.	.
8B\L	.	8r	.	8r	.	.	.
8G\J	.	8dd\	.	8b/	.	.	.
!LO:LB:g=original	!	!	!	!	!	!	!
=5	=5	=5	=5	=5	=5	=5	=5
8c\L	.	[4ee\	.	4cc\	.	00r	.
8B\	.	.	.	.	.	.	.
8c\	.	16ee\LL]	.	4r	.	.	.
.	.	16dd\	.	.	.	.	.
8A\J	.	16ee\	.	.	.	.	.
.	.	16cc\JJ	.	.	.	.	.
8B\L	.	[4dd\	.	4b/	.	.	.
8A\	.	.	.	.	.	.	.
8B\	.	16dd\LL]	.	4r	.	.	.
.	.	16cc\	.	.	.	.	.
8G\J	.	16dd\	.	.	.	.	.
.	.	16b\JJ	.	.	.	.	.
=6	=6	=6	=6	=6	=6	=6	=6
8A\L	.	[4cc\	.	4f#/	.	.	.
8G\	.	.	.	.	.	.	.
8F#\	.	16cc\LL]	.	8r	.	.	.
.	.	16b\	.	.	.	.	.
8E\J	.	16cc\	.	8f#/L	.	.	.
.	.	16a\JJ	.	.	.	.	.
8G\L	.	8b/L	.	8g/	.	.	.
8D\J	.	8g/J	.	8g/J	.	.	.
!	!	!	!	!LO:LB:g=original	!	!	!
8r	.	8r	.	8r	.	.	.
8D\	7 5	[8cc\	.	8a/	.	.	.
=7	=7	=7	=7	=7	=7	=7	=7
8D\L	.	8cc\L]	.	8a/L	.	.	.
8G\J	.	8b\J	.	8g/J	.	.	.
8r	.	8r	.	8r	.	.	.
8c\L	.	8ee\L	.	8cc\L	.	.	.
8c\	.	8ee\	.	8cc\	.	.	.
8G\J	.	8dd\J	.	8b\J	.	.	.
4r	.	8r	.	8r	.	.	.
.	.	8gg\	.	8b/	.	.	.
!	!	!LO:LB:g=original	!	!	!	!	!
=8	=8	=8	=8	=8	=8	=8	=8
2r	.	4ff#\	.	4a/	.	.	.
.	.	4gg\	.	4b/	.	.	.
4r	.	4aa\	.	4dd\	.	.	.
8r	.	8r	.	8r	.	.	.
8G\	.	8gg\	.	8dd\	.	.	.
=9	=9	=9	=9	=9	=9	=9	=9
8c\L	.	8ee\	.	8cc\	.	0r	.
8G\	.	4dd\	.	4b/	.	.	.
8G\	.	.	.	.	.	.	.
8A\J	6	8cc\	.	8a/	.	.	.
8G\L	.	8cc\L	.	8a/L	.	.	.
8D\	.	8b\	.	8g/	.	.	.
8G\	.	8b\	.	8g/	.	.	.
8G\J	.	8gg\J	.	8b/J	.	.	.
=10	=10	=10	=10	=10	=10	=10	=10
8c\L	.	8ee\	.	8cc\	.	.	.
8G\	.	4dd\	.	4b/	.	.	.
8G\	.	.	.	.	.	.	.
8A\J	.	8cc\	.	8a/	.	.	.
!LO:LB:g=original	!	!	!	!	!	!	!
8D\L	7 5	8cc\L	.	8a/L	.	.	.
8G\J	.	8b\J	.	8g/J	.	.	.
8r	.	8r	.	8r	.	.	.
8D/	.	8a/	.	8a/	.	.	.
=11	=11	=11	=11	=11	=11	=11	=11
!LO:TX:t=P:problem=mixed beam	!	!	!	!	!	!	!
8G\L	.	8b\L	.	8b/L	.	2r	.
8BB\	.	16dd\L	.	8g/	.	.	.
.	.	16g\JJ	.	.	.	.	.
8D\	.	8.f#/L	.	8f#/	.	.	.
8DD/J	.	.	.	8g/J	.	.	.
.	.	16g/Jk	.	.	.	.	.
!	!	!	!	!LO:LB:g=original	!	!	!
4GG/	.	4g/	.	4g/	.	4r	.
4r	.	8r	.	8r	.	8r	.
!	!	!	!LO:DY:a:t=piano	!	!LO:DY:a:t=piano	!	!
.	.	16b\LL	p	8g/	p	16b\LL	Ar-
.	.	16cc\JJ	.	.	.	16cc\JJ	.
=12	=12	=12	=12	=12	=12	=12	=12
00r	.	8dd\L	.	4b/	.	8dd\	-chan-
.	.	8dd\	.	.	.	8dd\	-ge-
.	.	8dd\	.	8r	.	8dd\	-li
.	.	8ee\J	.	8cc\	.	8ee\	ſal-
!	!	!LO:LB:g=original	!	!	!	!	!
.	.	16dd\LL	.	4g/	.	16dd\LL	-ve-
.	.	16cc\	.	.	.	16cc\	.
.	.	16b\	.	.	.	16b\	.
.	.	16a\JJ	.	.	.	16a\JJ	.
.	.	8g/L	.	8r	.	8g/	-te
.	.	16b/L	.	8g/	.	16b\LL	et
.	.	16cc/JJ	.	.	.	16cc\JJ	.
=13	=13	=13	=13	=13	=13	=13	=13
.	.	8dd\L	.	4b/	.	8dd\	An-
.	.	8dd\	.	.	.	8dd\	-ge-
.	.	8dd\	.	8r	.	8dd\	-li
.	.	8ee\J	.	8cc\	.	8ee\	ſal-
!	!	!	!	!	!	!LO:LB:g=original	!
.	.	16dd\LL	.	4g/	.	16dd\LL	-ve-
.	.	16cc\	.	.	.	16cc\	.
.	.	16b\	.	.	.	16b\	.
.	.	16a\JJ	.	.	.	16a\JJ	.
.	.	4g/	.	4r	.	4g/	-te
=14	=14	=14	=14	=14	=14	=14	=14
.	.	4b/	.	4g/	.	4b\	cus-
.	.	8cc\L	.	8a/L	.	8cc\	-to-
.	.	8b\J	.	8g/J	.	8b\	-des
!	!	!LO:TX:t=P:problem=mixed beam	!	!	!	!	!
.	.	8a\L	.	4d/	.	8a\	ho-
.	.	8f#\	.	.	.	8f#/	-mi-
.	.	8d\	.	8r	.	8d/	-n(um)
.	.	8dd/J	.	8d/	.	8dd\	mor-
=15	=15	=15	=15	=15	=15	=15	=15
.	.	8a/L	.	4f#/	.	8.a\	-ta-
.	.	8a/	.	.	.	.	.
.	.	.	.	.	.	16a\	-li-
.	.	8a/	.	8r	.	8a\	-bus
.	.	8b/J	.	8g/	.	8b\	do-
.	.	8a/L	.	4d/	.	8a\	-na-
.	.	8d/J	.	.	.	8d/	-ti
.	.	8r	.	8r	.	8r	.
.	.	8dd\	.	8d/	.	8dd\	no-
=16	=16	=16	=16	=16	=16	=16	=16
00r	.	8a/L	.	4f#/	.	8a\	-bis
.	.	8a/	.	.	.	8a\	de
.	.	8a/	.	8r	.	8a\	cae-
.	.	8b/J	.	8g/	.	8b\	-li
!	!	!	!	!	!	!LO:LB:g=original	!
.	.	8a/L	.	4d/	.	8a\	da-
.	.	8d/J	.	.	.	8d/	-ti
.	.	8r	.	8r	.	8r	.
.	.	8a/	.	8f#/	.	8a\	pla-
!	!	!LO:LB:g=original	!	!LO:LB:g=original	!	!	!
=17	=17	=17	=17	=17	=17	=17	=17
.	.	16b\LL	.	8g/L	.	16b\LL	-ca-
.	.	16cc\	.	.	.	16cc\JJ	.
.	.	16dd\	.	8c/	.	16dd\LL	-te
.	.	16g\JJ	.	.	.	16g\JJ	.
.	.	8.f#/L	.	8d/	.	8.f#/	ho-
.	.	.	.	8d/J	.	.	.
.	.	16g/Jk	.	.	.	16g/	-mi-
.	.	4g/	.	4G/	.	4g/	-n(um)
.	.	8r	.	8r	.	8r	.
.	.	[8cc\	.	8a/	.	8cc\	pla-
=18	=18	=18	=18	=18	=18	=18	=18
.	.	8cc\L]	.	8a/L	.	8cc\	-ca-
.	.	8b\J	.	8g/J	.	8b\	-te
.	.	8r	.	8r	.	8r	.
*	*	*	*	*	*	*	*ij
.	.	8ee\L	.	8cc\L	.	8ee\	pla-
.	.	8ee\	.	8cc\	.	8ee\	-ce-
.	.	8dd\J	.	8b\J	.	8dd\	-te
*	*	*	*	*	*	*	*Xij
.	.	4cc\	.	8r	.	8r	.
.	.	.	.	8a/	.	8cc\	pla-
=19	=19	=19	=19	=19	=19	=19	=19
.	.	16b\LL	.	8g/L	.	16b\LL	-ca-
.	.	16cc\	.	.	.	16cc\JJ	.
.	.	16dd\	.	8c/	.	16dd\LL	-te
.	.	16g\JJ	.	.	.	16g\JJ	.
.	.	8.f#/L	.	8d/	.	8.f#/	Do-
.	.	.	.	8d/J	.	.	.
.	.	16g/Jk	.	.	.	16g/	-mi-
!	!	!	!	!	!	!LO:LB:g=original	!
.	.	4g/	.	4G/	.	4g/	-num
.	.	8r	.	8r	.	8r	.
!	!	!LO:TX:a:t=P:problem=takty 20-24 zapisane repetycją	!	!	!	!	!
.	.	8dd\yy	.	8d/	.	8dd\	mor-
=20	=20	=20	=20	=20	=20	=20	=20
00r	.	8a/Lyy	.	4f#/	.	8.a\	-ta-
.	.	8a/yy	.	.	.	.	.
.	.	.	.	.	.	16a\	-li-
.	.	8a/yy	.	8r	.	8a\	-bus
.	.	8b/Jyy	.	8g/L	.	8b\	do-
.	.	8a/Lyy	.	8d/	.	8a\	-na-
.	.	8d/Jyy	.	8d/J	.	8d/	-ti
.	.	8ryy	.	8r	.	8r	.
.	.	8dd\yy	.	8d/	.	8dd\	no-
=21	=21	=21	=21	=21	=21	=21	=21
.	.	8a/Lyy	.	4f#/	.	8a\	-bis
.	.	8a/yy	.	.	.	8a\	de
.	.	8a/yy	.	8r	.	8a\	cae-
.	.	8b/Jyy	.	8g/	.	8b\	-li
.	.	8a/Lyy	.	4d/	.	8a\	da-
.	.	8d/Jyy	.	.	.	8d/	-ti
.	.	8ryy	.	8r	.	8r	.
.	.	8a/yy	.	8d/	.	8a\	pla-
=22	=22	=22	=22	=22	=22	=22	=22
.	.	16b\LLyy	.	8g/L	.	16b\LL	-ca-
.	.	16cc\yy	.	.	.	16cc\JJ	.
.	.	16dd\yy	.	8c/	.	16dd\LL	-te
.	.	16g\JJyy	.	.	.	16g\JJ	.
.	.	8.f#/Lyy	.	8d/	.	8.f#/	do-
.	.	.	.	8d/J	.	.	.
.	.	16g/Jkyy	.	.	.	16g/	-mi-
!	!	!	!	!LO:LB:g=original	!	!LO:LB:g=original	!
.	.	4g/yy	.	4G/	.	4g/	-num
.	.	8ryy	.	8r	.	8r	.
.	.	8cc\yy	.	8a/	.	8cc\	pla-
=23	=23	=23	=23	=23	=23	=23	=23
.	.	8cc\Lyy	.	8a/L	.	8cc\	-ca-
.	.	8b\Jyy	.	8g/J	.	8b\	-te
.	.	8ryy	.	8r	.	8r	.
*	*	*	*	*	*	*	*ij
.	.	8ee\Lyy	.	8cc\L	.	8ee\	pla-
.	.	8ee\yy	.	8cc\	.	8ee\	-ce-
.	.	8dd\Jyy	.	8b\J	.	8dd\	-te
*	*	*	*	*	*	*	*Xij
.	.	4cc\yy	.	8r	.	8r	.
.	.	.	.	8a/	.	8cc\	pla-
=24	=24	=24	=24	=24	=24	=24	=24
1r	.	16b\LLyy	.	8g/L	.	16b\LL	-ca-
.	.	16cc\yy	.	.	.	16cc\JJ	.
.	.	16dd\yy	.	8c/	.	16dd\LL	-te
.	.	16g\JJyy	.	.	.	16g\JJ	.
.	.	8.f#/Lyy	.	8d/	.	8.f#X/	Do-
.	.	.	.	8d/J	.	.	.
.	.	16g/Jkyy	.	.	.	16g/	-mi-
.	.	4g/yy	.	4G/	.	4g/	-n(um)
.	.	8ryy	.	8r	.	4r	.
!	!	!	!LO:DY:a:t=forte	!	!LO:DY:a:t=for.	!	!
.	.	16b\LL	f	16b/LL	f	.	.
.	.	16cc\JJ	.	16cc/JJ	.	.	.
=25	=25	=25	=25	=25	=25	=25	=25
8G\L	.	8dd\L	.	4dd\	.	00r	.
8A\	.	8dd\	.	.	.	.	.
8B\	.	8dd\	.	8r	.	.	.
8G\J	.	16ee\L	.	8cc\	.	.	.
.	.	16ff#\JJ	.	.	.	.	.
!	!	!LO:TX:t=P:problem=mixed beam	!	!	!	!	!
4G\	.	8gg\L	.	4b/	.	.	.
.	.	8g/J	.	.	.	.	.
4r	.	8g/L	.	8r	.	.	.
.	.	16b/L	.	16b\LL	.	.	.
.	.	16cc/JJ	.	16cc\JJ	.	.	.
!	!	!LO:LB:g=original	!	!	!	!	!
=26	=26	=26	=26	=26	=26	=26	=26
8G\L	.	8dd\L	.	4dd\	.	.	.
8A\	.	8dd\J	.	.	.	.	.
8B\	.	8dd\L	.	8r	.	.	.
8A\J	.	16ee\L	.	8cc\	.	.	.
.	.	16ff#\JJ	.	.	.	.	.
8G\L	.	4gg\	.	4b/	.	.	.
8A\	.	.	.	.	.	.	.
8B\	.	8r	.	8r	.	.	.
8G\J	.	8dd\	.	8b/	.	.	.
!	!	!	!	!LO:LB:g=original	!	!	!
=27	=27	=27	=27	=27	=27	=27	=27
8c\L	.	[4ee\	.	4cc\	.	.	.
8B\	.	.	.	.	.	.	.
8c\	.	16ee\LL]	.	4r	.	.	.
.	.	16dd\	.	.	.	.	.
8A\J	.	16ee\	.	.	.	.	.
.	.	16cc\JJ	.	.	.	.	.
8B\L	.	[4dd\	.	4b/	.	.	.
8G\	.	.	.	.	.	.	.
8B\	.	16dd\LL]	.	4r	.	.	.
.	.	16cc\	.	.	.	.	.
8G\J	.	16dd\	.	.	.	.	.
.	.	16b\JJ	.	.	.	.	.
!LO:LB:g=original	!	!	!	!	!	!	!
=28	=28	=28	=28	=28	=28	=28	=28
8A\L	.	[4cc\	.	4a/	.	.	.
8G\	.	.	.	.	.	.	.
8F#\	.	16cc\LL]	.	4r	.	.	.
.	.	16b\	.	.	.	.	.
8D\J	.	16cc\	.	.	.	.	.
.	.	16a\JJ	.	.	.	.	.
8G\L	.	8b/L	.	4g/	.	.	.
16G\L	.	8g/J	.	.	.	.	.
16A\JJ	.	.	.	.	.	.	.
8B\L	.	8r	.	8r	.	.	.
8G\J	.	8dd\	.	8b\	.	.	.
=29	=29	=29	=29	=29	=29	=29	=29
8c\L	.	[4ee\	.	4cc\	.	00r	.
8B\	.	.	.	.	.	.	.
8c\	.	16ee\LL]	.	4r	.	.	.
.	.	16dd\	.	.	.	.	.
8A\J	.	16ee\	.	.	.	.	.
.	.	16cc\JJ	.	.	.	.	.
8B\L	.	[4dd\	.	4b/	.	.	.
8A\	.	.	.	.	.	.	.
8B\	.	16dd\LL]	.	4r	.	.	.
.	.	16cc\	.	.	.	.	.
8G\J	.	16dd\	.	.	.	.	.
.	.	16b\JJ	.	.	.	.	.
=30	=30	=30	=30	=30	=30	=30	=30
8A\L	.	[4cc\	.	4a/	.	.	.
8G\	.	.	.	.	.	.	.
8F#\	.	16cc\LL]	.	8r	.	.	.
.	.	16b\	.	.	.	.	.
8D\J	.	16cc\	.	8f#/L	.	.	.
.	.	16a\JJ	.	.	.	.	.
!	!	!LO:LB:g=original	!	!	!	!	!
8G\L	.	8b/L	.	8g/	.	.	.
8D\J	.	8a/J	.	8f#/J	.	.	.
8r	.	8r	.	8r	.	.	.
8D\	7 5	[8cc\	.	8a/	.	.	.
=31	=31	=31	=31	=31	=31	=31	=31
8D\L	.	8cc\L]	.	8a/L	.	.	.
8G\J	.	8b\J	.	8g/J	.	.	.
8r	.	8r	.	8r	.	.	.
8c\L	.	8ee\L	.	8cc\L	.	.	.
8c\	.	8ee\	.	8cc\	.	.	.
8G\J	.	8dd\J	.	8b\J	.	.	.
4r	.	8r	.	8r	.	.	.
.	.	8gg\	.	8b\	.	.	.
=32	=32	=32	=32	=32	=32	=32	=32
2r	.	4ff#\	.	4a/	.	.	.
.	.	4gg\	.	4b/	.	.	.
4r	.	4aa\	.	4dd\	.	.	.
8r	.	8r	.	8r	.	.	.
8G\	.	8gg\	.	8b\	.	.	.
!	!	!	!	!LO:LB:g=original	!	!	!
=33	=33	=33	=33	=33	=33	=33	=33
8c\L	.	8ee\	.	8cc\	.	0r	.
8G\	.	4dd\	.	4b/	.	.	.
8G\	.	.	.	.	.	.	.
8A\J	6	[8cc\	.	8a/	.	.	.
!LO:LB:g=original	!	!	!	!	!	!	!
8A\L	.	8cc\L]	.	8a/L	.	.	.
8D\	.	8b\	.	8g/	.	.	.
8G\	.	8b\	.	8g/	.	.	.
8G\J	.	8gg\J	.	8b/J	.	.	.
=34	=34	=34	=34	=34	=34	=34	=34
8c\L	.	8ee\	.	8cc\	.	.	.
8G\J	.	4dd\	.	4b/	.	.	.
8G\L	.	.	.	.	.	.	.
8A\J	6	8cc\	.	8a/	.	.	.
8D\L	7 5	8cc\L	.	8a/L	.	.	.
8G\J	.	8b\J	.	8g/J	.	.	.
8r	.	8r	.	8r	.	.	.
!	!	!	!	!	!	!LO:TX:t=P:problem=podwójna kreska taktowa	!
8D/	.	8a/	.	8f#/	.	.	.
!	!	!LO:LB:g=original	!	!	!	!	!
=35	=35	=35	=35	=35	=35	=35	=35
!LO:TX:t=P:problem=mixed beam	!	!	!	!	!	!	!
8G\L	.	16b\LL	.	8g/L	.	2r	.
.	.	16cc\	.	.	.	.	.
8AA\	.	16dd\	.	8d/	.	.	.
.	.	16g\JJ	.	.	.	.	.
8D\	.	8.f#/L	.	8d/	.	.	.
8DD/J	.	.	.	8d/J	.	.	.
.	.	16g/Jk	.	.	.	.	.
!LO:TX:a:t=Finis	!	!LO:TX:a:t=Finis	!	!	!	!	!
4GG;;/	.	4g;</	.	4B;;/	.	4r	.
*>B	*	*>B	*>B	*>B	*>B	*>B	*>B
4r	.	8r	.	8r	.	8r	.
!LO:TX:t=P:problem=podwójna kreska taktowa	!	!	!	!	!	!	!
.	.	8b\	.	8b\	.	8b\	vol-
=36	=36	=36	=36	=36	=36	=36	=36
00r	.	8b\L	.	4b/	.	8.b\	-ge-
.	.	8b\J	.	.	.	.	.
.	.	.	.	.	.	16b\	-niſ
!	!	!	!	!	!	!LO:TX:t=P:problem=dźwięk niewidoczny	!
.	.	8b\L	.	8r	.	8b\yy	.
!	!	!	!	!	!	!LO:LB:g=original	!
.	.	16cc#X\L	.	8b/	.	16cc#X\LL	cae-
.	.	16dd#X\JJ	.	.	.	16dd#X\JJ	.
.	.	8ee\L	.	4b/	.	8ee\	-les-
.	.	8b\J	.	.	.	8b\	-tes
.	.	8r	.	8r	.	8r	.
.	.	8b/	.	8b/	.	8b\	pro-
=37	=37	=37	=37	=37	=37	=37	=37
.	.	8b\L	.	4b/	.	8b\	-cul-
.	.	8b\J	.	.	.	8b\	-a
.	.	8b\L	.	8r	.	8b\	no-
.	.	16cc#X\L	.	8B/	.	16cc#X\LL	-bis
.	.	16dd#X\JJ	.	.	.	16dd#X\JJ	.
!	!	!	!	!LO:LB:g=original	!	!	!
.	.	8ee\L	.	8e/L	.	8ee\	pas-
.	.	8b\J	.	8b/J	.	8b\	-tes
.	.	8r	.	8r	.	8r	.
.	.	8a/	.	8f#/	.	8a\	hos-
=38	=38	=38	=38	=38	=38	=38	=38
.	.	8g/L	.	8e/L	.	8g/	-ti-
.	.	8f#/	.	8d#X/	.	8f#/	-les
.	.	8g/	.	8e/	.	8.g/	pel-
.	.	8a/J	.	8f#/J	.	.	.
.	.	.	.	.	.	16a\	-li-
.	.	4f#/	.	4d#X/	.	4f#/	-te
.	.	8r	.	8r	.	8r	.
.	.	8b/	.	8g/	.	8b\	ve-
!	!	!LO:LB:g=original	!	!	!	!LO:LB:g=original	!
=39	=39	=39	=39	=39	=39	=39	=39
.	.	8cc\L	.	8a/L	.	8cc\	-stros
.	.	16a\L	.	16f#/L	.	16a\LL	ec-
.	.	16b\JJ	.	16g/JJ	.	16b\JJ	.
.	.	8cc\L	.	8a/L	.	8cc\	-ce
.	.	8cc\	.	8a/	.	8cc\	cli-
.	.	8cc\	.	8a/	.	8cc\	-en-
.	.	8b\J	.	8g/J	.	8b\	-tes
.	.	8r	.	8r	.	8r	.
.	.	8b/	.	8g/	.	8b\	ab
=40	=40	=40	=40	=40	=40	=40	=40
00r	.	8a/L	.	4f#/	.	8a\	his
.	.	16f#/L	.	.	.	16f#/LL	or-
.	.	16g/JJ	.	.	.	16g/JJ	.
.	.	8a/L	.	8r	.	8a\	-ci
.	.	8a/	.	8c#X/	.	8a\	fur-
.	.	8a/	.	8d/L	.	8a\	-en-
.	.	8g/J	.	8e/J	.	8g/	-tes
.	.	8r	.	8r	.	8r	.
.	.	8b/	.	8b/	.	8b\	den-
=41	=41	=41	=41	=41	=41	=41	=41
.	.	8ee\L	.	8a/L	.	8ee\	-tes
.	.	8cc\J	.	8f#/	.	8cc#X\	re-
.	.	8.dd#X\L	.	8b/	.	8.dd#X\	-fel-
.	.	.	.	8B/J	.	.	.
.	.	16dd#\Jk	.	.	.	16ee\	-bi-
.	.	4ee;\	.	4e/	.	4ee\	-te
!	!	!	!	!	!	!LO:PB:g=original	!
.	.	8r	.	8r	.	8r	.
.	.	8b/	.	8g/	.	8b\	ves-
!	!	!	!	!LO:LB:g=original	!	!	!
=42	=42	=42	=42	=42	=42	=42	=42
!	!	!LO:TX:a:t=P:problem=takty 42-44 zapisane repetycją	!	!	!	!	!
.	.	8cc\Lyy	.	4a/	.	8cc\	-tros
.	.	16a\Lyy	.	.	.	16a\LL	ec-
.	.	16b\JJyy	.	.	.	16b\JJ	.
.	.	8cc\Lyy	.	8r	.	8cc\	-ce
.	.	8cc\yy	.	8f#/	.	8cc\	cli-
.	.	8cc\yy	.	4g/	.	8cc\	-en-
.	.	8b\Jyy	.	.	.	8b\	-tes
.	.	8ryy	.	8r	.	8r	.
.	.	8b/yy	.	8g/	.	8b\	ab
=43	=43	=43	=43	=43	=43	=43	=43
.	.	8a/Lyy	.	4f#/	.	8a\	his
.	.	16f#/Lyy	.	.	.	16f#/LL	or-
.	.	16g/JJyy	.	.	.	16g/JJ	.
.	.	8a/Lyy	.	8r	.	8a\	-ci
.	.	8a/yy	.	8d#X/L	.	8a\	fu-
.	.	8a/yy	.	8d#/	.	8a\	-ren-
.	.	8g/Jyy	.	8e/J	.	8g/	-tes
.	.	8ryy	.	8r	.	8r	.
.	.	8b/yy	.	8f#/	.	8b\	den-
=44	=44	=44	=44	=44	=44	=44	=44
2r	.	8ee\Lyy	.	8e/L	.	8g/	-tes
.	.	8cc\Jyy	.	8A/	.	8e/	re-
!	!	!	!	!	!	!LO:LB:g=original	!
.	.	8.dd#X\Lyy	.	8B/	.	8.d#X/	-fel-
.	.	.	.	8B/J	.	.	.
.	.	16dd#\Jkyy	.	.	.	16d#/	-li-
4r	.	4ee;\yy	.	4e/	.	4e/	-te
8r	.	8ryy	.	4r	.	4r	.
!LO:TX:a:t=Da Capo	!	!LO:TX:a:t=Da Capo\nad Finem	!	!LO:TX:a:t=Da Capo	!	!LO:TX:a:t=Da Capo	!
8ryy	.	8b/yy	.	.	.	.	.
==	==	==	==	==	==	==	==
*-	*-	*-	*-	*-	*-	*-	*-
!!!system-decoration: s1[(s2,s3)]s4
!!!RDF**kern: < = below
!!!ENC: Tomasz Grochalski
!!!END: 2020-12-06
!!!ENC: Marta Lawrence
!!!END: 2022-03-28
